**kern	**kern	**dynam
*part1	*part1	*part1
*staff2	*staff1	*
*I"Piano	*	*
*clefF4	*clefG2	*
*k[]	*k[]	*
=1	=1	=1
*	*tremolo	*
[1FFF [1FF	32A 32c 32fLLL	fp
.	32a	.
.	32A 32c 32f	.
.	32a	.
.	32A 32c 32f	.
.	32a	.
.	32A 32c 32f	.
.	32a	.
.	32A 32c 32f	.
.	32a	.
.	32A 32c 32f	.
.	32a	.
.	32A 32c 32f	.
.	32a	.
.	32A 32c 32f	.
.	32aJJJ	.
.	32A 32c 32fLLL	>
.	32a	.
.	32A 32c 32f	.
.	32a	.
.	32A 32c 32f	.
.	32a	.
.	32A 32c 32f	.
.	32a	.
.	32A 32c 32f	.
.	32a	.
.	32A 32c 32f	.
.	32a	.
.	32A 32c 32f	.
.	32a	.
.	32A 32c 32f	.
.	32aJJJ	.
=	=	=
1FFF] 1FF]	32A 32c 32fLLL	.
.	32a	.
.	32A 32c 32f	.
.	32a	.
.	32A 32c 32f	.
.	32a	.
.	32A 32c 32f	.
.	32a	.
.	32A 32c 32f	.
.	32a	.
.	32A 32c 32f	.
.	32a	.
.	32A 32c 32f	.
.	32a	.
.	32A 32c 32f	.
.	32aJJJ	.
.	32A 32c 32fLLL	.
.	32a	.
.	32A 32c 32f	.
.	32a	.
.	32A 32c 32f	.
.	32a	.
.	32A 32c 32f	.
.	32a	.
.	32A 32c 32f	]
.	32a	.
.	32A 32c 32f	.
.	32a	.
.	32A 32c 32f	.
.	32a	.
.	32A 32c 32f	.
.	32aJJJ	.
=	=	=
(2DD 2D	32B-X 32d 32fLLL	.
.	32b-X	.
.	32B-X 32d 32f	.
.	32b-X	.
.	32B-X 32d 32f	.
.	32b-X	.
.	32B-X 32d 32f	.
.	32b-X	.
.	32B-X 32d 32f	.
.	32b-X	.
.	32B-X 32d 32f	.
.	32b-X	.
.	32B-X 32d 32f	.
.	32b-X	.
.	32B-X 32d 32f	.
.	32b-XJJJ	.
2EE 2E	32B- 32d 32gLLL	.
.	32b-	.
.	32B- 32d 32g	.
.	32b-	.
.	32B- 32d 32g	.
.	32b-	.
.	32B- 32d 32g	.
.	32b-	.
.	32B- 32d 32g	.
.	32b-	.
.	32B- 32d 32g	.
.	32b-	.
.	32B- 32d 32g	.
.	32b-	.
.	32B- 32d 32g	.
.	32b-JJJ	.
=	=	=
1FF) 1F	32B-X 32d 32fLLL	.
.	32b-X	.
.	32B-X 32d 32f	.
.	32b-X	.
.	32B-X 32d 32f	.
.	32b-X	.
.	32B-X 32d 32f	.
.	32b-X	.
.	32B-X 32d 32f	.
.	32b-X	.
.	32B-X 32d 32f	.
.	32b-X	.
.	32B-X 32d 32f	.
.	32b-X	.
.	32B-X 32d 32f	.
.	32b-XJJJ	.
.	32A 32c 32fLLL	.
.	32a	.
.	32A 32c 32f	.
.	32a	.
.	32A 32c 32f	.
.	32a	.
.	32A 32c 32f	.
.	32a	.
.	32A 32c 32f	.
.	32a	.
.	32A 32c 32f	.
.	32a	.
.	32A 32c 32f	.
.	32a	.
.	32A 32c 32f	.
.	32aJJJ	.
=	=	=
(2EE	32c 32eLLL	pp
.	32a	.
.	32c 32e	.
.	32a	.
.	32c 32e	.
.	32a	.
.	32c 32e	.
.	32a	.
.	32c 32e	.
.	32a	.
.	32c 32e	.
.	32a	.
.	32c 32e	.
.	32a	.
.	32c 32e	.
.	32aJJJ	.
2FF	32c 32dLLL	.
.	32a	.
.	32c 32d	.
.	32a	.
.	32c 32d	.
.	32a	.
.	32c 32d	.
.	32a	.
.	32c 32d	.
.	32a	.
.	32c 32d	.
.	32a	.
.	32c 32d	.
.	32a	.
.	32c 32d	.
.	32aJJJ	.
=	=	=
2EE	32c 32eLLL	.
.	32a	.
.	32c 32e	.
.	32a	.
.	32c 32e	.
.	32a	.
.	32c 32e	.
.	32a	.
.	32c 32e	.
.	32a	.
.	32c 32e	.
.	32a	.
.	32c 32e	.
.	32a	.
.	32c 32e	.
.	32aJJJ	.
2DD)	32c 32fLLL	.
.	32a	.
.	32c 32f	.
.	32a	.
.	32c 32f	.
.	32a	.
.	32c 32f	.
.	32a	.
.	32c 32f	.
.	32a	.
.	32c 32f	.
.	32a	.
.	32c 32f	.
.	32a	.
.	32c 32f	.
.	32aJJJ	.
=	=	=
1EE	32c 32eLLL	.
.	32a	.
.	32c 32e	.
.	32a	.
.	32c 32e	.
.	32a	.
.	32c 32e	.
.	32a	.
.	32c 32e	.
.	32a	.
.	32c 32e	.
.	32a	.
.	32c 32e	.
.	32a	.
.	32c 32e	.
.	32aJJJ	.
.	32B 32eLLL	.
.	32g#X	.
.	32B 32e	.
.	32g#X	.
.	32B 32e	.
.	32g#X	.
.	32B 32e	.
.	32g#X	.
.	32B 32e	.
.	32g#X	.
.	32B 32e	.
.	32g#X	.
.	32B 32e	.
.	32g#X	.
.	32B 32e	.
.	32g#XJJJ	.
*	*Xtremolo	*
=	=	=
*-	*-	*-
!!!system-decoration: {(s1,s2)}
